X: 19143
T: Irish Washerwoman, The
R: jig
M: 6/8
K: Gmajor
|:BGG DGG|BGB dcB|cAA EAA|cAc edc|
BGG DGG|BGB dcB|cBc Adc|BGG G3:|
|:gdg gdg|gdg bag|fdf fdf|fdf agf|
egg dgg|cgg Bgg|cBc Adc|BGG G3:|

